X:181
T:Logie O' Buchan. Le4.181
Q:3/8=100
T:Caledonian Quadrilles #2. Le4.027
L:1/8
B:L.Leadley MS#4 c1850
Z:vmp.Mike Hicken 2016 www.village-music-project.org.uk
C:Air
N:* This note has been dotted to match the preceeding demi-semi-quaver.
M:6/8
K:D
"^? Moderato"!f!("*"A/>G/)|F>GA (A<f)e|(dB).B B2 A/>G/|(F>G)A (A<d)e|(fd).d d2 A/>G/|
(F>G)A (A<f)e|(dB).B B2 A/>G/|(FG).A (A<d)e|(fd).d d2 "_Fine":|
(d/>e/)|(f>ef) (af).e|(dBc) d2 (d/>e/)|(fg).f|(ed).e|(fd).B B2 (d/>e/)|
(f>e).f (af)e|(dB)c d2 d/e/|(fg).f (ed).e|fdB B2 "_Da Capo"|]

